X: 30003
T: Off In The Morning
R: reel
M: 4/4
K: Gmajor
zD|GzGB dB~B2|gBfB eBdB|cBAc BAG2|Add^c decA|
GDGB dB~B2|(3gag fg egdB|cdec BdGB|ADFA G2:|
|:Bd|gzgf gdBd|(3gag fg egdB|cBAc BAG2|Add^c defa|
fggf gdBd|(3gfg bg egdB|cdec BdGB|ADFA G2:|

